actions/16/contact-new.svg

<?xml version="1.0" encoding="UTF-8" standalone="no"?>
<svg
   xmlns:dc="http://purl.org/dc/elements/1.1/"
   xmlns:cc="http://creativecommons.org/ns#"
   xmlns:rdf="http://www.w3.org/1999/02/22-rdf-syntax-ns#"
   xmlns:svg="http://www.w3.org/2000/svg"
   xmlns="http://www.w3.org/2000/svg"
   xmlns:xlink="http://www.w3.org/1999/xlink"
   version="1.1"
   width="16"
   height="16"
   id="svg3810">
  <defs
     id="defs3812">
    <linearGradient
       x1="23.99999"
       y1="6.2052388"
       x2="23.99999"
       y2="41.589603"
       id="linearGradient3988"
       xlink:href="#linearGradient3977"
       gradientUnits="userSpaceOnUse"
       gradientTransform="matrix(0.24324324,0,0,0.35135133,2.1621636,-0.43242804)" />
    <linearGradient
       id="linearGradient3977">
      <stop
         id="stop3979"
         style="stop-color:#ffffff;stop-opacity:1"
         offset="0" />
      <stop
         id="stop3981"
         style="stop-color:#ffffff;stop-opacity:0.23529412"
         offset="0.02929282" />
      <stop
         id="stop3983"
         style="stop-color:#ffffff;stop-opacity:0.15686275"
         offset="0.97230476" />
      <stop
         id="stop3985"
         style="stop-color:#ffffff;stop-opacity:0.39215687"
         offset="1" />
    </linearGradient>
    <linearGradient
       id="linearGradient3600">
      <stop
         id="stop3602"
         style="stop-color:#f4f4f4;stop-opacity:1"
         offset="0" />
      <stop
         id="stop3604"
         style="stop-color:#dbdbdb;stop-opacity:1"
         offset="1" />
    </linearGradient>
    <linearGradient
       x1="25.132275"
       y1="0.98520643"
       x2="25.132275"
       y2="47.013336"
       id="linearGradient3806"
       xlink:href="#linearGradient3600"
       gradientUnits="userSpaceOnUse"
       gradientTransform="matrix(0.28571361,0,0,0.30419701,1.1428727,0.2326048)" />
    <linearGradient
       id="linearGradient3104-9">
      <stop
         id="stop3106-5"
         style="stop-color:#000000;stop-opacity:0.33950618"
         offset="0" />
      <stop
         id="stop3108-5"
         style="stop-color:#000000;stop-opacity:0.24691358"
         offset="1" />
    </linearGradient>
    <linearGradient
       x1="-51.786404"
       y1="50.786446"
       x2="-51.786404"
       y2="2.9062471"
       id="linearGradient3019"
       xlink:href="#linearGradient3104-9"
       gradientUnits="userSpaceOnUse"
       gradientTransform="matrix(0.25378586,0,0,0.30501865,19.128979,-0.68547704)" />
    <radialGradient
       cx="64.575233"
       cy="48.605404"
       r="31.000002"
       fx="64.575233"
       fy="48.605404"
       id="radialGradient3259"
       xlink:href="#linearGradient3242-7-3-8-0-4-58-06"
       gradientUnits="userSpaceOnUse"
       gradientTransform="matrix(0,0.38528829,-0.41958841,0,32.389496,-16.793007)" />
    <linearGradient
       id="linearGradient3242-7-3-8-0-4-58-06">
      <stop
         id="stop3244-5-8-5-6-4-3-8"
         style="stop-color:#cdf87e;stop-opacity:1"
         offset="0" />
      <stop
         id="stop3246-9-5-1-5-3-0-7"
         style="stop-color:#a2e34f;stop-opacity:1"
         offset="0.26238" />
      <stop
         id="stop3248-7-2-0-7-5-35-9"
         style="stop-color:#68b723;stop-opacity:1"
         offset="0.66093999" />
      <stop
         id="stop3250-8-2-8-5-6-40-4"
         style="stop-color:#1d7e0d;stop-opacity:1"
         offset="1" />
    </linearGradient>
    <radialGradient
       cx="10.90426"
       cy="8.4497671"
       r="19.99999"
       fx="10.90426"
       fy="8.4497671"
       id="radialGradient3140"
       xlink:href="#linearGradient2867-449-88-871-390-598-476-591-434-148-57-177-641-289-620-227-114-444-680-744-8-7"
       gradientUnits="userSpaceOnUse"
       gradientTransform="matrix(0,0.44731149,-0.37711817,0,11.188238,0.2914361)" />
    <linearGradient
       id="linearGradient2867-449-88-871-390-598-476-591-434-148-57-177-641-289-620-227-114-444-680-744-8-7">
      <stop
         id="stop5430-8-6"
         style="stop-color:#5f5f5f;stop-opacity:1"
         offset="0" />
      <stop
         id="stop5432-3-5"
         style="stop-color:#4f4f4f;stop-opacity:1"
         offset="0.26238" />
      <stop
         id="stop5434-1-6"
         style="stop-color:#3b3b3b;stop-opacity:1"
         offset="0.704952" />
      <stop
         id="stop5436-8-9"
         style="stop-color:#2b2b2b;stop-opacity:1"
         offset="1" />
    </linearGradient>
    <linearGradient
       x1="24"
       y1="44"
       x2="24"
       y2="3.8990016"
       id="linearGradient3143"
       xlink:href="#linearGradient3707-319-631-407-324-616-674-812-821-107-178-392-400-6-7"
       gradientUnits="userSpaceOnUse"
       gradientTransform="matrix(0.29830664,0,0,0.31813165,0.8422856,1.0179439)" />
    <linearGradient
       id="linearGradient3707-319-631-407-324-616-674-812-821-107-178-392-400-6-7">
      <stop
         id="stop5440-4-4"
         style="stop-color:#272727;stop-opacity:1"
         offset="0" />
      <stop
         id="stop5442-3-5"
         style="stop-color:#454545;stop-opacity:1"
         offset="1" />
    </linearGradient>
  </defs>
  <metadata
     id="metadata3815">
    <rdf:RDF>
      <cc:Work
         rdf:about="">
        <dc:format>image/svg+xml</dc:format>
        <dc:type
           rdf:resource="http://purl.org/dc/dcmitype/StillImage" />
        <dc:title></dc:title>
      </cc:Work>
    </rdf:RDF>
  </metadata>
  <path
     style="display:inline;fill:url(#linearGradient3806);fill-opacity:1;stroke:none"
     id="path4160"
     d="m 3,1 c 2.2915074,0 9.999988,8.904e-4 9.999988,8.904e-4 L 13,15 C 13,15 6.3333332,15 3,15 3,10.333334 3,5.6666664 3,1 Z" />
  <path
     style="fill:none;stroke:url(#linearGradient3988);stroke-width:1;stroke-linecap:round;stroke-linejoin:miter;stroke-miterlimit:4;stroke-dasharray:none;stroke-dashoffset:0;stroke-opacity:1"
     id="rect6741-1"
     d="m 12.5,14.5 -9.0000001,0 0,-13 L 12.5,1.5 Z" />
  <path
     style="display:inline;fill:none;stroke:url(#linearGradient3019);stroke-width:0.99992192;stroke-linecap:butt;stroke-linejoin:round;stroke-miterlimit:4;stroke-dasharray:none;stroke-dashoffset:0;stroke-opacity:1"
     id="path4160-8"
     d="m 2.4999621,0.49997396 c 2.5206756,0 11.0000629,9.54e-4 11.0000629,9.54e-4 l 1.3e-5,14.99909804 c 0,0 -7.3333841,0 -11.000076,0 0,-5.000017 0,-10.000035 0,-15.00005204 z" />
  <path
     style="display:inline;overflow:visible;visibility:visible;opacity:0.4;fill:#ffffff;fill-opacity:1;fill-rule:evenodd;stroke:none;stroke-width:1.00213277;marker:none;enable-background:accumulate"
     id="rect2382-1"
     d="m 7.9710241,6.0000284 c -0.2159651,-0.00127 -0.4055978,0.040109 -0.534671,0.125864 -0.1665228,0.1106434 -0.239943,0.1246866 -0.2864322,0.048409 -0.044482,-0.072976 -0.084931,-0.064823 -0.124119,0.038729 -0.033149,0.087579 -0.1024181,0.1275553 -0.181407,0.096819 -0.075317,-0.029304 -0.1061946,-0.019869 -0.076378,0.02904 0.028639,0.04701 0.014633,0.087139 -0.028639,0.087139 -0.043283,0 -0.1819121,0.1483001 -0.305527,0.3291829 -0.1970531,0.2883413 -0.2291962,0.4201239 -0.2291452,1.0262749 2.75e-5,0.380312 0.037584,0.7506221 -0.076379,0.7745478 -0.066839,0.014035 -0.060473,0.2783707 -0.028639,0.5518663 0.041638,0.357641 0.1038082,0.532847 0.2768824,0.697091 0.269583,0.2558197 0.5155765,0.6986477 0.5155765,0.9391397 0,0.32944 -0.7581257,0.905997 -1.8921808,1.432399 l 0,0.823471 5.9994332,0 5.67e-4,-0.909239 c -0.941596,-0.43428 -1.7208792,-1.035188 -1.7208792,-1.346633 0,-0.239911 0.236715,-0.683577 0.506027,-0.9391394 0.173078,-0.164244 0.2448052,-0.33945 0.2864322,-0.697091 0.03182,-0.2734956 0.03613,-0.530041 -0.02864,-0.5518663 C 9.953646,8.5259653 9.956966,8.1586772 9.956966,7.7814845 9.956965,7.2408093 9.923036,7.0396007 9.785108,6.8133007 9.5106608,6.3629988 8.6189441,6.0039092 7.9710433,6.0000245 Z" />
  <path
     style="color:#000000;display:inline;overflow:visible;visibility:visible;fill:url(#radialGradient3140);fill-opacity:1;fill-rule:nonzero;stroke:url(#linearGradient3143);stroke-width:0.99999976;stroke-linecap:round;stroke-linejoin:round;stroke-miterlimit:4;stroke-dasharray:none;stroke-dashoffset:0;stroke-opacity:1;marker:none;enable-background:accumulate"
     id="path3107"
     d="M 7.9736781,5.5134933 C 7.4892365,5.4815557 7.0166035,5.7619614 6.734785,6.1418135 6.4605709,6.6316037 6.6844869,7.2150578 6.5132852,7.7320755 6.4091517,8.1022001 6.5120429,8.4968527 6.7853304,8.7657414 7.0179072,9.0564834 7.3043388,9.4353533 7.1448971,9.8259351 6.9141284,10.265576 6.4543203,10.522958 6.0355545,10.757543 c -0.271372,0.109443 -0.7940598,0.383962 -0.4501728,0.709984 0.1560121,0.101982 0.3382908,-0.01026 0.5123215,0.02257 1.4674209,0 2.9348416,0 4.4022628,0 0,-0.176524 0,-0.353049 0,-0.529573 C 9.9407128,10.65933 9.3090248,10.36914 8.9946323,9.7829775 8.888063,9.322491 9.2161028,8.9190673 9.5031288,8.5993208 9.7859368,8.2429597 9.6727548,7.7730549 9.5740148,7.3747487 9.5322558,6.9340822 9.6760318,6.4136995 9.3445978,6.0525856 8.9862587,5.6922784 8.4683724,5.5454885 7.9736781,5.5134933 Z" />
  <path
     style="color:#000000;display:inline;overflow:visible;visibility:visible;fill:url(#radialGradient3259);fill-opacity:1;fill-rule:nonzero;stroke:none;stroke-width:0.98542738;stroke-linecap:round;stroke-linejoin:round;stroke-miterlimit:4;stroke-dasharray:none;stroke-dashoffset:0;stroke-opacity:1;marker:none;enable-background:accumulate"
     id="path2262"
     d="m 10.5,10.5 0,-2.0072863 3,0 0,2.0072863 2.007286,0 0,3 -2.007286,0 0,2.007286 -3,0 0,-2.007286 -2.0072863,0 0,-3 2.0072863,0 z" />
  <path
     style="color:#000000;clip-rule:nonzero;display:inline;overflow:visible;visibility:visible;opacity:0.5;isolation:auto;mix-blend-mode:normal;color-interpolation:sRGB;color-interpolation-filters:linearRGB;solid-color:#000000;solid-opacity:1;fill:none;fill-opacity:1;fill-rule:nonzero;stroke:#0f5a00;stroke-width:1;stroke-linecap:round;stroke-linejoin:round;stroke-miterlimit:4;stroke-dasharray:none;stroke-dashoffset:0;stroke-opacity:1;marker:none;color-rendering:auto;image-rendering:auto;shape-rendering:auto;text-rendering:auto;enable-background:accumulate"
     id="path2262-5"
     d="m 10.5,10.5 0,-2.0072863 3,0 0,2.0072863 2.007286,0 0,3 -2.007286,0 0,2.007286 -3,0 0,-2.007286 -2.0072863,0 0,-3 2.0072863,0 z" />
  <rect
     style="color:#000000;clip-rule:nonzero;display:inline;overflow:visible;visibility:visible;opacity:0.5;isolation:auto;mix-blend-mode:normal;color-interpolation:sRGB;color-interpolation-filters:linearRGB;solid-color:#000000;solid-opacity:1;fill:#ffffff;fill-opacity:1;fill-rule:nonzero;stroke:none;stroke-width:1;stroke-linecap:round;stroke-linejoin:round;stroke-miterlimit:4;stroke-dasharray:none;stroke-dashoffset:0;stroke-opacity:1;marker:none;color-rendering:auto;image-rendering:auto;shape-rendering:auto;text-rendering:auto;enable-background:accumulate"
     id="rect4304"
     width="2"
     height="1"
     x="11"
     y="9" />
  <rect
     style="color:#000000;clip-rule:nonzero;display:inline;overflow:visible;visibility:visible;opacity:0.2;isolation:auto;mix-blend-mode:normal;color-interpolation:sRGB;color-interpolation-filters:linearRGB;solid-color:#000000;solid-opacity:1;fill:#ffffff;fill-opacity:1;fill-rule:nonzero;stroke:none;stroke-width:1;stroke-linecap:round;stroke-linejoin:round;stroke-miterlimit:4;stroke-dasharray:none;stroke-dashoffset:0;stroke-opacity:1;marker:none;color-rendering:auto;image-rendering:auto;shape-rendering:auto;text-rendering:auto;enable-background:accumulate"
     id="rect4304-6"
     width="2"
     height="1"
     x="11"
     y="14" />
  <rect
     style="color:#000000;clip-rule:nonzero;display:inline;overflow:visible;visibility:visible;opacity:0.4;isolation:auto;mix-blend-mode:normal;color-interpolation:sRGB;color-interpolation-filters:linearRGB;solid-color:#000000;solid-opacity:1;fill:#ffffff;fill-opacity:1;fill-rule:nonzero;stroke:none;stroke-width:1;stroke-linecap:round;stroke-linejoin:round;stroke-miterlimit:4;stroke-dasharray:none;stroke-dashoffset:0;stroke-opacity:1;marker:none;color-rendering:auto;image-rendering:auto;shape-rendering:auto;text-rendering:auto;enable-background:accumulate"
     id="rect4304-6-2"
     width="2"
     height="1"
     x="9"
     y="11" />
  <rect
     style="color:#000000;clip-rule:nonzero;display:inline;overflow:visible;visibility:visible;opacity:0.4;isolation:auto;mix-blend-mode:normal;color-interpolation:sRGB;color-interpolation-filters:linearRGB;solid-color:#000000;solid-opacity:1;fill:#ffffff;fill-opacity:1;fill-rule:nonzero;stroke:none;stroke-width:1;stroke-linecap:round;stroke-linejoin:round;stroke-miterlimit:4;stroke-dasharray:none;stroke-dashoffset:0;stroke-opacity:1;marker:none;color-rendering:auto;image-rendering:auto;shape-rendering:auto;text-rendering:auto;enable-background:accumulate"
     id="rect4304-6-2-4"
     width="2"
     height="1"
     x="13"
     y="11" />
</svg>

<svg xmlns="http://www.w3.org/2000/svg" xmlns:xlink="http://www.w3.org/1999/xlink" viewBox="0 0 16 16"><defs><linearGradient x1="24" y1="6.205" x2="24" y2="41.59" id="h" xlink:href="#a" gradientUnits="userSpaceOnUse" gradientTransform="matrix(.24324 0 0 .35135 2.162 -.432)"/><linearGradient id="a"><stop offset="0" stop-color="#fff"/><stop offset=".029" stop-color="#fff" stop-opacity=".235"/><stop offset=".972" stop-color="#fff" stop-opacity=".157"/><stop offset="1" stop-color="#fff" stop-opacity=".392"/></linearGradient><linearGradient id="b"><stop offset="0" stop-color="#f4f4f4"/><stop offset="1" stop-color="#dbdbdb"/></linearGradient><linearGradient x1="25.132" y1=".985" x2="25.132" y2="47.013" id="g" xlink:href="#b" gradientUnits="userSpaceOnUse" gradientTransform="matrix(.2857 0 0 .3042 1.143 .233)"/><linearGradient id="c"><stop offset="0" stop-opacity=".34"/><stop offset="1" stop-opacity=".247"/></linearGradient><linearGradient x1="-51.786" y1="50.786" x2="-51.786" y2="2.906" id="i" xlink:href="#c" gradientUnits="userSpaceOnUse" gradientTransform="matrix(.2538 0 0 .30502 19.13 -.685)"/><radialGradient cx="64.575" cy="48.605" r="31" fx="64.575" fy="48.605" id="l" xlink:href="#d" gradientUnits="userSpaceOnUse" gradientTransform="matrix(0 .3853 -.4196 0 32.39 -16.793)"/><linearGradient id="d"><stop offset="0" stop-color="#cdf87e"/><stop offset=".262" stop-color="#a2e34f"/><stop offset=".661" stop-color="#68b723"/><stop offset="1" stop-color="#1d7e0d"/></linearGradient><radialGradient cx="10.904" cy="8.45" r="20" fx="10.904" fy="8.45" id="j" xlink:href="#e" gradientUnits="userSpaceOnUse" gradientTransform="matrix(0 .4473 -.37712 0 11.188 .29)"/><linearGradient id="e"><stop offset="0" stop-color="#5f5f5f"/><stop offset=".262" stop-color="#4f4f4f"/><stop offset=".705" stop-color="#3b3b3b"/><stop offset="1" stop-color="#2b2b2b"/></linearGradient><linearGradient x1="24" y1="44" x2="24" y2="3.899" id="k" xlink:href="#f" gradientUnits="userSpaceOnUse" gradientTransform="matrix(.2983 0 0 .31813 .842 1.018)"/><linearGradient id="f"><stop offset="0" stop-color="#272727"/><stop offset="1" stop-color="#454545"/></linearGradient></defs><path d="M3 1h10v14H3V1z" fill="url(#g)"/><path d="M12.5 14.5h-9v-13h9z" fill="none" stroke="url(#h)" stroke-linecap="round"/><path d="M2.5.5h11v15h-11V.5z" fill="none" stroke="url(#i)" stroke-linejoin="round"/><path d="M7.97 6c-.215 0-.405.04-.534.126-.166.11-.24.125-.286.048-.045-.073-.085-.065-.124.04-.033.087-.103.127-.182.096-.075-.03-.106-.02-.076.03.03.046.015.086-.03.086-.042 0-.18.148-.304.33-.197.288-.23.42-.23 1.025 0 .39.038.76-.076.78-.067.02-.06.28-.028.55.04.36.103.54.277.7.27.26.515.7.515.94 0 .33-.758.908-1.892 1.43V13h6v-.91c-.942-.434-1.72-1.034-1.72-1.346 0-.24.236-.683.505-.94.173-.163.245-.338.287-.696.03-.274.036-.53-.03-.552-.088-.03-.085-.397-.085-.775 0-.54-.034-.74-.172-.96C9.51 6.37 8.62 6.01 7.97 6z" overflow="visible" opacity=".4" fill="#fff" fill-rule="evenodd"/><path d="M7.974 5.513c-.485-.03-.957.25-1.24.63-.273.49-.05 1.072-.22 1.59-.105.37-.002.764.27 1.033.234.29.52.67.36 1.06-.23.44-.69.697-1.108.932-.272.11-.795.384-.45.71.155.102.338-.01.512.022H10.5v-.53c-.56-.3-1.19-.59-1.505-1.177-.107-.46.22-.864.508-1.184.283-.36.17-.83.07-1.23-.04-.44.103-.96-.228-1.32-.36-.36-.877-.51-1.37-.54z" color="#000" overflow="visible" fill="url(#j)" stroke="url(#k)" stroke-linecap="round" stroke-linejoin="round"/><path d="M10.5 10.5V8.493h3V10.5h2.007v3H13.5v2.007h-3V13.5H8.493v-3H10.5z" color="#000" overflow="visible" fill="url(#l)"/><path style="isolation:auto;mix-blend-mode:normal" d="M10.5 10.5V8.493h3V10.5h2.007v3H13.5v2.007h-3V13.5H8.493v-3H10.5z" color="#000" overflow="visible" opacity=".5" fill="none" stroke="#0f5a00" stroke-linecap="round" stroke-linejoin="round"/><path style="isolation:auto;mix-blend-mode:normal" color="#000" overflow="visible" opacity=".5" fill="#fff" d="M11 9h2v1h-2z"/><path style="isolation:auto;mix-blend-mode:normal" color="#000" overflow="visible" opacity=".2" fill="#fff" d="M11 14h2v1h-2z"/><path style="isolation:auto;mix-blend-mode:normal" color="#000" overflow="visible" opacity=".4" fill="#fff" d="M9 11h2v1H9zm4 0h2v1h-2z"/></svg>
